src/xmb/retrosystem/DOS.svg

<?xml version="1.0" encoding="UTF-8" standalone="no"?>
<svg
   xmlns:dc="http://purl.org/dc/elements/1.1/"
   xmlns:cc="http://creativecommons.org/ns#"
   xmlns:rdf="http://www.w3.org/1999/02/22-rdf-syntax-ns#"
   xmlns:svg="http://www.w3.org/2000/svg"
   xmlns="http://www.w3.org/2000/svg"
   xmlns:sodipodi="http://sodipodi.sourceforge.net/DTD/sodipodi-0.dtd"
   xmlns:inkscape="http://www.inkscape.org/namespaces/inkscape"
   viewBox="0 0 341.33334 341.33334"
   height="256"
   width="256"
   xml:space="preserve"
   id="svg2"
   version="1.1"
   sodipodi:docname="DOS.svg"
   inkscape:version="0.92.3 (2405546, 2018-03-11)"
   inkscape:export-filename="D:\git\alfrix-retroarch-theme\png\DOS.png"
   inkscape:export-xdpi="96"
   inkscape:export-ydpi="96"><sodipodi:namedview
     pagecolor="#ffffff"
     bordercolor="#666666"
     borderopacity="1"
     objecttolerance="10"
     gridtolerance="10"
     guidetolerance="10"
     inkscape:pageopacity="0"
     inkscape:pageshadow="2"
     inkscape:window-width="1024"
     inkscape:window-height="705"
     id="namedview62"
     showgrid="false"
     showguides="true"
     inkscape:guide-bbox="true"
     inkscape:zoom="1.3828124"
     inkscape:cx="180.46249"
     inkscape:cy="151.85783"
     inkscape:window-x="-8"
     inkscape:window-y="-8"
     inkscape:window-maximized="1"
     inkscape:current-layer="svg2"
     inkscape:pagecheckerboard="true" /><metadata
     id="metadata8"><rdf:RDF><cc:Work
         rdf:about=""><dc:format>image/svg+xml</dc:format><dc:type
           rdf:resource="http://purl.org/dc/dcmitype/StillImage" /><dc:title /></cc:Work></rdf:RDF></metadata><defs
     id="defs6"><clipPath
       id="clipPath18"
       clipPathUnits="userSpaceOnUse"><path
         id="path16"
         d="M 0,256 H 256 V 0 H 0 Z" /></clipPath><clipPath
       id="clipPath26"
       clipPathUnits="userSpaceOnUse"><path
         id="path24"
         d="M 4,252 H 252 V 4 H 4 Z" /></clipPath><clipPath
       id="clipPath44"
       clipPathUnits="userSpaceOnUse"><path
         id="path42"
         d="M 0,256 H 256 V 0 H 0 Z" /></clipPath></defs><g
     transform="matrix(1.3347025,0,0,-1.3333333,44.350932,30.000005)"
     id="g228"
     style="fill:#cccccc"><path
       sodipodi:nodetypes="ccccc"
       id="path226"
       style="fill:#cccccc;fill-opacity:1;fill-rule:nonzero;stroke:none"
       d="M 0,0 H 189.474 V -152 H 0 V 0"
       inkscape:connector-curvature="0" /></g><g
     id="g50-1"
     transform="matrix(1.6074522,0,0,-1.6467439,55.57082,-85.622886)"
     style="fill:#999999" /><path
     inkscape:connector-curvature="0"
     d="M 118.83598,240 H 82.497 v -7.59322 h 36.33898 z"
     style="fill:#a0a0a0;fill-opacity:1;fill-rule:nonzero;stroke:none;stroke-width:0.37909549"
     id="path36" /><g
     id="g46"
     transform="matrix(1.3347025,0,0,-1.3333333,44.350932,26.000005)"><path
       inkscape:connector-curvature="0"
       d="M 0,0 H 189.474 V -152 H 0 V 0"
       style="fill:#c2c2c2;fill-opacity:1;fill-rule:nonzero;stroke:none"
       id="path48"
       sodipodi:nodetypes="ccccc" /></g><g
     id="g50"
     transform="matrix(1.3333333,0,0,-1.3333333,67.999998,42.000004)"><path
       inkscape:connector-curvature="0"
       d="m 0,0 h 154 c 3.866,0 7,-3.084 7,-6.889 v -110.222 c 0,-3.805 -3.134,-6.889 -7,-6.889 H 0 c -3.866,0 -7,3.084 -7,6.889 V -6.889 C -7,-3.084 -3.866,0 0,0"
       style="fill:#a0a0a0;fill-opacity:1;fill-rule:nonzero;stroke:none"
       id="path52" /></g><g
     id="g54"
     transform="matrix(1.3333333,0,0,-1.3333333,80.717331,61.389871)"
     style="fill:#333333;fill-opacity:1"><path
       inkscape:connector-curvature="0"
       d="m 0,0 c 24.889,3.39 96,3.39 120.889,0 1.95,-0.266 3.555,-1.512 3.555,-3.39 v -88.135 c 0,-1.878 -1.605,-3.125 -3.555,-3.39 -24.889,-3.39 -96,-3.39 -120.889,0 -1.95,0.265 -3.556,1.512 -3.556,3.39 V -3.39 c 0,1.878 1.606,3.124 3.556,3.39"
       style="fill:#333333;fill-opacity:1;fill-rule:nonzero;stroke:none"
       id="path56" /></g><g
     id="g58"
     transform="matrix(1.3333333,0,0,-1.3333333,161.31,58.000004)"
     style="fill:#191919;fill-opacity:1"><path
       inkscape:connector-curvature="0"
       d="M 0,0 C -24,0 -48,-0.847 -60.444,-2.542 -62.394,-2.808 -64,-4.054 -64,-5.932 v -88.136 c 0,-1.878 1.606,-3.124 3.556,-3.39 C -48,-99.153 -24,-100 0,-100 c 24,0 48,0.847 60.444,2.542 1.95,0.266 3.556,1.512 3.556,3.39 v 88.136 c 0,1.878 -1.606,3.124 -3.556,3.39 C 48,-0.847 24,0 0,0 M 0,-4 C 25.602,-4 48.556,-4.96 59.905,-6.506 59.938,-6.51 59.97,-6.516 60,-6.522 V -93.478 C 59.97,-93.484 59.938,-93.49 59.905,-93.494 48.556,-95.04 25.602,-96 0,-96 c -25.602,0 -48.556,0.96 -59.905,2.506 -0.033,0.004 -0.065,0.01 -0.095,0.016 v 86.956 c 0.03,0.006 0.062,0.012 0.095,0.016 C -48.556,-4.96 -25.602,-4 0,-4"
       style="fill:#191919;fill-opacity:1;fill-rule:nonzero;stroke:none"
       id="path60" /></g><g
     id="g62"
     transform="matrix(1.3333333,0,0,-1.3333333,272.23386,145.7576)"><path
       inkscape:connector-curvature="0"
       d="m 0,0 c 0,-3.314 -2.686,-6 -6,-6 -3.314,0 -6,2.686 -6,6 0,3.314 2.686,6 6,6 3.314,0 6,-2.686 6,-6"
       style="fill:#3b3b3b;fill-opacity:1;fill-rule:nonzero;stroke:none"
       id="path64" /></g><g
     id="g66"
     transform="matrix(1.3333333,0,0,-1.3333333,272.23386,173.394)"><path
       inkscape:connector-curvature="0"
       d="m 0,0 c 0,-3.314 -2.686,-6 -6,-6 -3.314,0 -6,2.686 -6,6 0,3.314 2.686,6 6,6 3.314,0 6,-2.686 6,-6"
       style="fill:#3b3b3b;fill-opacity:1;fill-rule:nonzero;stroke:none"
       id="path68" /></g><path
     inkscape:connector-curvature="0"
     d="M 16,325.33333 H 325.33333 V 240 H 16 Z"
     style="fill:#c2c2c2;fill-opacity:1;fill-rule:nonzero;stroke:none;stroke-width:1.33333325"
     id="path70" /><path
     inkscape:connector-curvature="0"
     d="m 207.99999,314.68 h 106.66667 v -64 H 207.99999 Z"
     style="fill:#a0a0a0;fill-opacity:1;fill-rule:nonzero;stroke:none;stroke-width:1.33333325"
     id="path72" /><g
     id="g74"
     transform="matrix(1.3333333,0,0,-1.3333333,287.99999,266.6684)"><path
       inkscape:connector-curvature="0"
       d="M 0,0 H -40"
       style="fill:#262626;fill-opacity:1;fill-rule:nonzero;stroke:none"
       id="path76" /></g><path
     inkscape:connector-curvature="0"
     d="m 234.66799,269.33333 h 53.332 V 264 h -53.332 z"
     style="fill:#262626;fill-opacity:1;fill-rule:nonzero;stroke:none;stroke-width:1.33333325"
     id="path78" /><path
     inkscape:connector-curvature="0"
     d="m 255.99999,272 h 10.66667 v -10.66667 h -10.66667 z"
     style="fill:#262626;fill-opacity:1;fill-rule:nonzero;stroke:none;stroke-width:1.33333325"
     id="path80" /><path
     inkscape:connector-curvature="0"
     d="m 277.33333,277.33333 h 10.66666 V 272 h -10.66666 z"
     style="fill:#808080;fill-opacity:1;fill-rule:nonzero;stroke:none;stroke-width:1.33333325"
     id="path82" /><g
     id="g84"
     transform="matrix(1.3333333,0,0,-1.3333333,309.33333,298.6684)"><path
       inkscape:connector-curvature="0"
       d="M 0,0 H -72"
       style="fill:#262626;fill-opacity:1;fill-rule:nonzero;stroke:none"
       id="path86" /></g><path
     inkscape:connector-curvature="0"
     d="m 213.33599,301.33333 h 95.99734 V 296 h -95.99734 z"
     style="fill:#262626;fill-opacity:1;fill-rule:nonzero;stroke:none;stroke-width:1.33333325"
     id="path88" /><path
     inkscape:connector-curvature="0"
     d="m 255.99999,304 h 10.66667 v -10.66667 h -10.66667 z"
     style="fill:#262626;fill-opacity:1;fill-rule:nonzero;stroke:none;stroke-width:1.33333325"
     id="path90" /><path
     inkscape:connector-curvature="0"
     d="m 298.66666,309.33333 h 10.66667 V 304 h -10.66667 z"
     style="fill:#808080;fill-opacity:1;fill-rule:nonzero;stroke:none;stroke-width:1.33333325"
     id="path92" /><g
     id="g94"
     transform="matrix(1.3333333,0,0,-1.3333333,34.666666,303.112)"><path
       inkscape:connector-curvature="0"
       d="M 0,0 C 0,-3.308 2.691,-5.999 5.999,-5.999 9.309,-5.999 12,-3.308 12,0 12,3.31 9.309,6.001 5.999,6.001 2.691,6.001 0,3.31 0,0 M -2,0 C -2,4.411 1.588,8.001 5.999,8.001 10.41,8.001 14,4.411 14,0 14,-4.411 10.41,-7.999 5.999,-7.999 1.588,-7.999 -2,-4.411 -2,0"
       style="fill:#a0a0a0;fill-opacity:1;fill-rule:nonzero;stroke:none"
       id="path96" /></g><path
     inkscape:connector-curvature="0"
     d="M 31.999999,272 H 53.333332 V 250.66667 H 31.999999 Z"
     style="fill:#a0a0a0;fill-opacity:1;fill-rule:nonzero;stroke:none;stroke-width:1.33333325"
     id="path98" /><g
     id="g100"
     transform="matrix(1.3333333,0,0,-1.3333333,95.912931,75.06867)"
     style="fill:#00ff00"><path
       inkscape:connector-curvature="0"
       d="M 0,0 H -1.574 V -0.799 H -2.36 v -4.799 h 0.786 V -6.4 H 0 v 0.802 h 0.786 v 0.799 H 1.574 V -6.4 H 0.786 V -7.199 H -2.36 V -6.4 h -0.789 v 0.802 h -0.786 v 4.799 h 0.786 V 0 H -2.36 V 0.801 H 0.786 V 0 H 1.574 V -1.598 H 0.786 v 0.799 H 0 Z"
       style="fill:#00ff00;fill-opacity:1;fill-rule:nonzero;stroke:none"
       id="path102" /></g><path
     inkscape:connector-curvature="0"
     d="m 103.25466,81.46667 h 2.09867 v 2.133333 h -2.09867 z m 0,-5.333333 h 2.09867 v 2.133333 h -2.09867 z"
     style="fill:#00ff00;fill-opacity:1;fill-rule:nonzero;stroke:none;stroke-width:1.33333325"
     id="path104" /><g
     id="g106"
     transform="matrix(1.3333333,0,0,-1.3333333,115.8468,83.601337)"
     style="fill:#00ff00"><path
       inkscape:connector-curvature="0"
       d="M 0,0 H -0.786 V 0.801 H -1.574 V 1.6 H -2.36 V 2.4 H -3.146 V 3.201 H -3.935 V 4 h -0.786 v 2.4 h 0.786 V 5.6 h 0.789 V 4.801 H -2.36 V 4 h 0.786 V 3.201 h 0.788 V 2.4 H 0 V 1.6 H 0.788 V -0.799 H 0 Z"
       style="fill:#00ff00;fill-opacity:1;fill-rule:nonzero;stroke:none"
       id="path108" /></g><g
     id="g120"
     transform="matrix(1.3333333,0,0,-1.3333333,120,74.534671)"
     style="fill:#00ff00"><path
       inkscape:connector-curvature="0"
       d="M 0,0 H 1.574 V -0.799 H 2.36 V -1.598 H 3.149 V -2.4 H 3.935 V -3.199 H 4.723 V -4 H 3.935 V -4.799 H 3.149 V -5.598 H 2.36 V -6.4 H 1.574 V -7.199 H 0 V -6.4 h 0.788 v 0.802 h 0.786 v 0.799 H 2.36 V -4 h 0.789 v 0.801 H 2.36 V -2.4 H 1.574 v 0.802 H 0.788 v 0.799 H 0 Z"
       style="fill:#00ff00;fill-opacity:1;fill-rule:nonzero;stroke:none"
       id="path122" /></g><path
     id="path230"
     style="fill:#a0a0a0;fill-opacity:1;fill-rule:nonzero;stroke:none;stroke-width:0.37909549"
     d="m 260.83616,240 h -36.33898 v -7.59322 h 36.33898 z"
     inkscape:connector-curvature="0" /><rect
     style="opacity:1;vector-effect:none;fill:#00ff00;fill-opacity:1;stroke:none;stroke-width:1.33333337;stroke-linecap:butt;stroke-linejoin:miter;stroke-miterlimit:4;stroke-dasharray:none;stroke-dashoffset:0;stroke-opacity:1"
     id="rect856"
     width="6.666667"
     height="1.3333334"
     x="128"
     y="82.331253" /><path
     style="fill:none;fill-opacity:1;fill-rule:nonzero;stroke:#000000;stroke-width:0.99999997;stroke-miterlimit:4;stroke-dasharray:none"
     d="M 33.263197,19.500003 33.263672,174.5 H 61.873047 V 180 H 12 v 64 h 232 v -64 h -48.37305 v -5.5 h 27.30469 L 222.93117,19.500003 Z M 89.126953,174.5 H 168.37305 V 180 H 89.126953 Z"
     id="path939"
     transform="scale(1.3333334)"
     inkscape:connector-curvature="0"
     sodipodi:nodetypes="cccccccccccccccccc" /></svg>

<svg xmlns="http://www.w3.org/2000/svg" xml:space="preserve" width="256" height="256" viewBox="0 0 341.333 341.333"><g style="fill:#ccc"><path d="M0 0h189.474v-152H0z" style="fill:#ccc;fill-opacity:1;fill-rule:nonzero;stroke:none" transform="matrix(1.3347 0 0 -1.33333 44.35 30)"/></g><path d="M118.836 240H82.497v-7.593h36.339z" style="fill:#a0a0a0;fill-opacity:1;fill-rule:nonzero;stroke:none;stroke-width:.37909549"/><path d="M0 0h189.474v-152H0z" style="fill:#c2c2c2;fill-opacity:1;fill-rule:nonzero;stroke:none" transform="matrix(1.3347 0 0 -1.33333 44.35 26)"/><path d="M0 0h154c3.866 0 7-3.084 7-6.889v-110.222c0-3.805-3.134-6.889-7-6.889H0c-3.866 0-7 3.084-7 6.889V-6.889C-7-3.084-3.866 0 0 0" style="fill:#a0a0a0;fill-opacity:1;fill-rule:nonzero;stroke:none" transform="matrix(1.33333 0 0 -1.33333 68 42)"/><g style="fill:#333;fill-opacity:1"><path d="M0 0c24.889 3.39 96 3.39 120.889 0 1.95-.266 3.555-1.512 3.555-3.39v-88.135c0-1.878-1.605-3.125-3.555-3.39-24.889-3.39-96-3.39-120.889 0-1.95.265-3.556 1.512-3.556 3.39V-3.39C-3.556-1.512-1.95-.266 0 0" style="fill:#333;fill-opacity:1;fill-rule:nonzero;stroke:none" transform="matrix(1.33333 0 0 -1.33333 80.717 61.39)"/></g><g style="fill:#191919;fill-opacity:1"><path d="M0 0c-24 0-48-.847-60.444-2.542C-62.394-2.808-64-4.054-64-5.932v-88.136c0-1.878 1.606-3.124 3.556-3.39C-48-99.153-24-100 0-100s48 .847 60.444 2.542c1.95.266 3.556 1.512 3.556 3.39v88.136c0 1.878-1.606 3.124-3.556 3.39C48-.847 24 0 0 0m0-4c25.602 0 48.556-.96 59.905-2.506q.05-.007.095-.016v-86.956l-.095-.016C48.556-95.04 25.602-96 0-96s-48.556.96-59.905 2.506q-.05.007-.095.016v86.956q.045.01.095.016C-48.556-4.96-25.602-4 0-4" style="fill:#191919;fill-opacity:1;fill-rule:nonzero;stroke:none" transform="matrix(1.33333 0 0 -1.33333 161.31 58)"/></g><path d="M0 0a6 6 0 1 0-12 0A6 6 0 0 0 0 0" style="fill:#3b3b3b;fill-opacity:1;fill-rule:nonzero;stroke:none" transform="matrix(1.33333 0 0 -1.33333 272.234 145.758)"/><path d="M0 0a6 6 0 1 0-12 0A6 6 0 0 0 0 0" style="fill:#3b3b3b;fill-opacity:1;fill-rule:nonzero;stroke:none" transform="matrix(1.33333 0 0 -1.33333 272.234 173.394)"/><path d="M16 325.333h309.333V240H16Z" style="fill:#c2c2c2;fill-opacity:1;fill-rule:nonzero;stroke:none;stroke-width:1.33333325"/><path d="M208 314.68h106.667v-64H208Z" style="fill:#a0a0a0;fill-opacity:1;fill-rule:nonzero;stroke:none;stroke-width:1.33333325"/><path d="M0 0h-40" style="fill:#262626;fill-opacity:1;fill-rule:nonzero;stroke:none" transform="matrix(1.33333 0 0 -1.33333 288 266.668)"/><path d="M234.668 269.333H288V264h-53.332z" style="fill:#262626;fill-opacity:1;fill-rule:nonzero;stroke:none;stroke-width:1.33333325"/><path d="M256 272h10.667v-10.667H256z" style="fill:#262626;fill-opacity:1;fill-rule:nonzero;stroke:none;stroke-width:1.33333325"/><path d="M277.333 277.333H288V272h-10.667z" style="fill:gray;fill-opacity:1;fill-rule:nonzero;stroke:none;stroke-width:1.33333325"/><path d="M0 0h-72" style="fill:#262626;fill-opacity:1;fill-rule:nonzero;stroke:none" transform="matrix(1.33333 0 0 -1.33333 309.333 298.668)"/><path d="M213.336 301.333h95.997V296h-95.997z" style="fill:#262626;fill-opacity:1;fill-rule:nonzero;stroke:none;stroke-width:1.33333325"/><path d="M256 304h10.667v-10.667H256z" style="fill:#262626;fill-opacity:1;fill-rule:nonzero;stroke:none;stroke-width:1.33333325"/><path d="M298.667 309.333h10.666V304h-10.666z" style="fill:gray;fill-opacity:1;fill-rule:nonzero;stroke:none;stroke-width:1.33333325"/><path d="M0 0a6.006 6.006 0 0 1 5.999-5.999A6.006 6.006 0 0 1 12 0a6.006 6.006 0 0 1-6.001 6.001A6.006 6.006 0 0 1 0 0m-2 0c0 4.411 3.588 8.001 7.999 8.001S14 4.411 14 0s-3.59-7.999-8.001-7.999S-2-4.411-2 0" style="fill:#a0a0a0;fill-opacity:1;fill-rule:nonzero;stroke:none" transform="matrix(1.33333 0 0 -1.33333 34.667 303.112)"/><path d="M32 272h21.333v-21.333H32Z" style="fill:#a0a0a0;fill-opacity:1;fill-rule:nonzero;stroke:none;stroke-width:1.33333325"/><g style="fill:#0f0"><path d="M0 0h-1.574v-.799h-.786v-4.799h.786V-6.4H0v.802h.786v.799h.788V-6.4H.786v-.799H-2.36v.799h-.789v.802h-.786v4.799h.786V0h.789v.801H.786V0h.788v-1.598H.786v.799H0Z" style="fill:#0f0;fill-opacity:1;fill-rule:nonzero;stroke:none" transform="matrix(1.33333 0 0 -1.33333 95.913 75.069)"/></g><path d="M103.255 81.467h2.098V83.6h-2.098zm0-5.334h2.098v2.134h-2.098z" style="fill:#0f0;fill-opacity:1;fill-rule:nonzero;stroke:none;stroke-width:1.33333325"/><g style="fill:#0f0"><path d="M0 0h-.786v.801h-.788V1.6h-.786v.8h-.786v.801h-.789V4h-.786v2.4h.786v-.8h.789v-.799h.786V4h.786v-.799h.788V2.4H0v-.8h.788V-.799H0Z" style="fill:#0f0;fill-opacity:1;fill-rule:nonzero;stroke:none" transform="matrix(1.33333 0 0 -1.33333 115.847 83.601)"/></g><g style="fill:#0f0"><path d="M0 0h1.574v-.799h.786v-.799h.789V-2.4h.786v-.799h.788V-4h-.788v-.799h-.786v-.799H2.36V-6.4h-.786v-.799H0v.799h.788v.802h.786v.799h.786V-4h.789v.801H2.36v.799h-.786v.802H.788v.799H0Z" style="fill:#0f0;fill-opacity:1;fill-rule:nonzero;stroke:none" transform="matrix(1.33333 0 0 -1.33333 120 74.535)"/></g><path d="M260.836 240h-36.339v-7.593h36.34z" style="fill:#a0a0a0;fill-opacity:1;fill-rule:nonzero;stroke:none;stroke-width:.37909549"/><path d="M128 82.331h6.667v1.333H128z" style="opacity:1;vector-effect:none;fill:#0f0;fill-opacity:1;stroke:none;stroke-width:1.33333337;stroke-linecap:butt;stroke-linejoin:miter;stroke-miterlimit:4;stroke-dasharray:none;stroke-dashoffset:0;stroke-opacity:1"/><path d="M33.263 19.5v155h28.61v5.5H12v64h232v-64h-48.373v-5.5h27.305v-155Zm55.864 155h79.246v5.5H89.127Z" style="fill:none;fill-opacity:1;fill-rule:nonzero;stroke:#000;stroke-width:.99999997;stroke-miterlimit:4;stroke-dasharray:none" transform="scale(1.33333)"/></svg>
